public/share/copy-success-projects.svg

<svg xmlns="http://www.w3.org/2000/svg" xmlns:vectornator="http://vectornator.io" xml:space="preserve" stroke-miterlimit="10" style="fill-rule:nonzero;clip-rule:evenodd;stroke-linecap:round;stroke-linejoin:round" viewBox="0 0 1024 1024"><clipPath id="a"><path d="M0 0h1024v1024H0z"/></clipPath><g vectornator:layerName="Layer 1" clip-path="url(#a)"><g vectornator:layerName="Group 1" fill="#134e4a" opacity=".402"><path vectornator:layerName="Curve 1" d="m565.833 414.853-38.841 38.841c8.788 5.152 17.057 11.34 24.516 18.798 52.987 52.988 47.456 144.428-12.342 204.227L294.417 921.467c-59.798 59.799-151.205 65.296-204.192 12.308-52.988-52.987-47.49-144.394 12.308-204.192l225.479-225.48-30.165-30.165L52.225 719.561c-69.643 69.643-69.61 182.538.033 252.181 69.643 69.638 182.538 69.678 252.181.034L589.474 686.74c69.643-69.643 69.643-182.571 0-252.214-7.398-7.399-15.369-13.846-23.641-19.673Z" opacity="1"/><path vectornator:layerName="Curve 2" d="m458.176 609.138 38.841-38.841c-8.788-5.152-17.057-11.34-24.515-18.798-52.988-52.988-47.457-144.428 12.341-204.227l244.749-244.748c59.798-59.799 151.205-65.296 204.192-12.308 52.988 52.987 47.491 144.394-12.308 204.192l-225.479 225.48 30.165 30.164 245.623-245.623c69.645-69.642 69.605-182.537-.034-252.18-69.643-69.643-182.538-69.677-252.18-.034L434.535 337.251c-69.643 69.643-69.643 182.571 0 252.214 7.398 7.399 15.369 13.846 23.641 19.673Z" opacity="1"/></g><path vectornator:layerName="Curve 1" fill="#fff" d="M502.469 259.094c-82.983 0-156.464 40.572-201.813 102.906 45.724-61.138 118.696-100.719 200.906-100.719 77.682 0 147.077 35.31 193.063 90.781l1.156-1.156c-45.743-56.022-115.346-91.812-193.312-91.812Zm193.312 91.812c8.951 10.963 16.931 22.728 23.938 35.125l47.312-47.312c8.17-8.19 8.17-21.362 0-29.531-8.169-8.17-21.362-8.17-29.531 0l-41.719 41.718Zm23.938 35.125-1 1c-7.12-12.316-15.075-24.092-24.094-34.969L468.938 577.75l-78.25-78.281c-8.17-8.17-21.394-8.17-29.563 0-8.169 8.169-8.169 21.362 0 29.531l93.063 93.062a20.791 20.791 0 0 0 14.75 6.126 20.912 20.912 0 0 0 14.781-6.126l235-234.968c15.912 27.605 26.851 58.436 31.312 91.344-4.005-33.27-14.536-64.494-30.312-92.407Zm31.343 102.844c.508 6.498.844 13.06.844 19.687C751.906 646.331 640.238 758 502.469 758S253 646.331 253 508.562c0-54.785 17.717-105.409 47.656-146.562-31.284 41.831-49.812 93.751-49.812 150 0 138.46 112.259 250.719 250.718 250.719 138.46 0 250.719-112.259 250.719-250.719 0-7.81-.51-15.503-1.219-23.125Z"/><path vectornator:layerName="path" fill="#134e4a" d="M501.555 261.276c-138.46 0-250.719 112.26-250.719 250.719 0 138.46 112.259 250.719 250.719 250.719 138.46 0 250.719-112.259 250.719-250.719 0-45.534-12.327-88.104-33.543-124.91L483.722 622.052a20.89 20.89 0 0 1-14.772 6.121 20.838 20.838 0 0 1-14.772-6.121l-93.04-93.04c-8.17-8.169-8.17-21.375 0-29.544 8.169-8.17 21.375-8.17 29.544 0l78.268 78.268 225.664-225.664c-45.986-55.471-115.378-90.796-193.059-90.796Zm193.059 90.796c9.018 10.877 16.996 22.656 24.117 34.972l48.315-48.316c8.169-8.19 8.169-21.375 0-29.544s-21.375-8.169-29.544 0l-42.888 42.888Z"/></g></svg>

<?xml version="1.0" encoding="UTF-8" standalone="no"?>
<!DOCTYPE svg PUBLIC "-//W3C//DTD SVG 1.1//EN" "http://www.w3.org/Graphics/SVG/1.1/DTD/svg11.dtd">
<!-- Created with Vectornator (http://vectornator.io/) -->
<svg height="100%" stroke-miterlimit="10" style="fill-rule:nonzero;clip-rule:evenodd;stroke-linecap:round;stroke-linejoin:round;" version="1.1" viewBox="0 0 1024 1024" width="100%" xml:space="preserve" xmlns="http://www.w3.org/2000/svg" xmlns:vectornator="http://vectornator.io" xmlns:xlink="http://www.w3.org/1999/xlink">
<defs/>
<clipPath id="ArtboardFrame">
<rect height="1024" width="1024" x="0" y="0"/>
</clipPath>
<g clip-path="url(#ArtboardFrame)" id="Layer-1" vectornator:layerName="Layer 1">
<g opacity="0.402087" vectornator:layerName="Group 1">
<path d="M565.833 414.853L526.992 453.694C535.78 458.846 544.049 465.034 551.508 472.492C604.495 525.48 598.964 616.92 539.166 676.719L294.417 921.467C234.619 981.266 143.212 986.763 90.2247 933.775C37.2372 880.788 42.7344 789.381 102.533 729.583L328.012 504.103L297.847 473.938L52.2245 719.561C-17.4184 789.204-17.3847 902.099 52.2581 971.742C121.901 1041.38 234.796 1041.42 304.439 971.776L589.474 686.74C659.117 617.097 659.117 504.169 589.474 434.526C582.076 427.127 574.105 420.68 565.833 414.853Z" fill="#134e4a" fill-rule="nonzero" opacity="1" stroke="none" vectornator:layerName="Curve 1"/>
<path d="M458.176 609.138L497.017 570.297C488.229 565.145 479.96 558.957 472.502 551.499C419.514 498.511 425.045 407.071 484.843 347.272L729.592 102.524C789.39 42.7253 880.797 37.228 933.784 90.2156C986.772 143.203 981.275 234.61 921.476 294.408L695.997 519.888L726.162 550.052L971.785 304.429C1041.43 234.787 1041.39 121.892 971.751 52.2489C902.108-17.3938 789.213-17.4276 719.571 52.2153L434.535 337.251C364.892 406.894 364.892 519.822 434.535 589.465C441.933 596.864 449.904 603.311 458.176 609.138Z" fill="#134e4a" fill-rule="nonzero" opacity="1" stroke="none" vectornator:layerName="Curve 2"/>
</g>
<path d="M502.469 259.094C419.486 259.094 346.005 299.666 300.656 362C346.38 300.862 419.352 261.281 501.562 261.281C579.244 261.281 648.639 296.591 694.625 352.062L695.781 350.906C650.038 294.884 580.435 259.094 502.469 259.094ZM695.781 350.906C704.732 361.869 712.712 373.634 719.719 386.031L767.031 338.719C775.201 330.529 775.201 317.357 767.031 309.188C758.862 301.018 745.669 301.018 737.5 309.188L695.781 350.906ZM719.719 386.031L718.719 387.031C711.599 374.715 703.644 362.939 694.625 352.062L468.938 577.75L390.688 499.469C382.518 491.299 369.294 491.299 361.125 499.469C352.956 507.638 352.956 520.831 361.125 529L454.188 622.062C458.095 625.99 463.401 628.188 468.938 628.188C474.495 628.188 479.812 625.97 483.719 622.062L718.719 387.094C734.631 414.699 745.57 445.53 750.031 478.438C746.026 445.168 735.495 413.944 719.719 386.031ZM751.062 488.875C751.57 495.373 751.906 501.935 751.906 508.562C751.906 646.331 640.238 758 502.469 758C364.7 758 253 646.331 253 508.562C253 453.777 270.717 403.153 300.656 362C269.372 403.831 250.844 455.751 250.844 512C250.844 650.46 363.103 762.719 501.562 762.719C640.022 762.719 752.281 650.46 752.281 512C752.281 504.19 751.771 496.497 751.062 488.875Z" fill="#ffffff" fill-rule="nonzero" opacity="1" stroke="none" vectornator:layerName="Curve 1"/>
<path d="M501.555 261.276C363.095 261.276 250.836 373.536 250.836 511.995C250.836 650.455 363.095 762.714 501.555 762.714C640.015 762.714 752.274 650.455 752.274 511.995C752.274 466.461 739.947 423.891 718.731 387.085L483.722 622.052C479.815 625.959 474.508 628.173 468.95 628.173C463.413 628.173 458.085 625.98 454.178 622.052L361.138 529.012C352.968 520.843 352.968 507.637 361.138 499.468C369.307 491.298 382.513 491.298 390.682 499.468L468.95 577.736L694.614 352.072C648.628 296.601 579.236 261.276 501.555 261.276ZM694.614 352.072C703.632 362.949 711.61 374.728 718.731 387.044L767.046 338.728C775.215 330.538 775.215 317.353 767.046 309.184C758.877 301.015 745.671 301.015 737.502 309.184L694.614 352.072Z" fill="#134e4a" fill-rule="nonzero" opacity="1" stroke="none" vectornator:layerName="path"/>
</g>
</svg>
